theme/img/top/txt_p.svg

<svg width="102" height="126" viewBox="0 0 102 126" fill="none" xmlns="http://www.w3.org/2000/svg">
<path d="M0.387695 125.614C1.16895 120.097 1.58398 112.675 1.63281 103.349V22.3428C1.58398 13.7979 1.16895 6.47363 0.387695 0.370117C6.54004 0.663086 13.9131 0.80957 22.5068 0.80957H55.3193C71.1396 0.80957 83.0781 4.78906 91.1348 12.748C97.9219 19.5352 101.315 29.0078 101.315 41.166C101.315 53.959 97.5801 64.0664 90.1094 71.4883C81.8574 79.6914 70.2119 83.793 55.1729 83.793H31.3691V102.909C31.418 112.577 31.833 120.146 32.6143 125.614H0.387695ZM31.3691 58.3047H53.708C59.0791 58.3047 63.2295 56.8643 66.1592 53.9834C69.0889 51.2002 70.5537 47.2207 70.5537 42.0449C70.5537 37.1621 69.2109 33.3535 66.5254 30.6191C63.7422 27.7383 59.4697 26.2979 53.708 26.2979H31.3691V58.3047Z" fill="url(#paint0_linear_3_309)"/>
<defs>
<linearGradient id="paint0_linear_3_309" x1="-422" y1="-42.8157" x2="385.828" y2="385.126" gradientUnits="userSpaceOnUse">
<stop stop-color="#001F63"/>
<stop offset="1" stop-color="#00E1EC"/>
</linearGradient>
</defs>
</svg>

<svg xmlns="http://www.w3.org/2000/svg" width="102" height="126" fill="none"><path fill="url(#a)" d="M.388 125.614q1.17-8.276 1.245-22.265V22.343Q1.56 9.525.388.37q9.228.44 22.119.44h32.812q23.731 0 35.816 11.938 10.18 10.18 10.18 28.418 0 19.19-11.206 30.322-12.378 12.305-34.936 12.305H31.369v19.116q.073 14.502 1.245 22.705zm30.981-67.31h22.339q8.057 0 12.451-4.32 4.395-4.175 4.395-11.94 0-7.323-4.029-11.425-4.174-4.32-12.817-4.321H31.369z"/><defs><linearGradient id="a" x1="-422" x2="385.828" y1="-42.816" y2="385.126" gradientUnits="userSpaceOnUse"><stop stop-color="#001F63"/><stop offset="1" stop-color="#00E1EC"/></linearGradient></defs></svg>
